icons/folder-percent.svg

<svg xmlns="http://www.w3.org/2000/svg" width="24" height="24" viewBox="0 0 24 24">
  <path d="M11,4 L13,6 L20,6 C21.1045695,6 22,6.8954305 22,8 L22,18 C22,19.1045695 21.1045695,20 20,20 L4,20 C2.8954305,20 2,19.1045695 2,18 L2,6 C2,4.8954305 2.8954305,4 4,4 L11,4 Z M15.7071068,15.2928932 C15.3165825,14.9023689 14.6834175,14.9023689 14.2928932,15.2928932 C13.9023689,15.6834175 13.9023689,16.3165825 14.2928932,16.7071068 C14.6834175,17.0976311 15.3165825,17.0976311 15.7071068,16.7071068 C16.0976311,16.3165825 16.0976311,15.6834175 15.7071068,15.2928932 Z M15.7071068,9.29289322 C15.3165825,8.90236893 14.6834175,8.90236893 14.2928932,9.29289322 L14.2928932,9.29289322 L8.29289322,15.2928932 L8.20970461,15.3871006 C7.90467972,15.7793918 7.93240926,16.3466228 8.29289322,16.7071068 C8.68341751,17.0976311 9.31658249,17.0976311 9.70710678,16.7071068 L9.70710678,16.7071068 L15.7071068,10.7071068 L15.7902954,10.6128994 C16.0953203,10.2206082 16.0675907,9.65337718 15.7071068,9.29289322 Z M9.70710678,9.29289322 C9.31658249,8.90236893 8.68341751,8.90236893 8.29289322,9.29289322 C7.90236893,9.68341751 7.90236893,10.3165825 8.29289322,10.7071068 C8.68341751,11.0976311 9.31658249,11.0976311 9.70710678,10.7071068 C10.0976311,10.3165825 10.0976311,9.68341751 9.70710678,9.29289322 Z"/>
</svg>

<svg xmlns="http://www.w3.org/2000/svg" viewBox="0 0 24 24">
  <path d="m11 4 2 2h7a2 2 0 0 1 2 2v10a2 2 0 0 1-2 2H4a2 2 0 0 1-2-2V6c0-1.1.9-2 2-2h7zm4.7 11.3a1 1 0 1 0-1.4 1.4 1 1 0 0 0 1.4-1.4zm0-6a1 1 0 0 0-1.4 0l-6 6-.09.09a1 1 0 0 0 1.5 1.32l6-6 .08-.1a1 1 0 0 0-.08-1.32zm-6 0a1 1 0 1 0-1.4 1.4 1 1 0 0 0 1.4-1.4z"/>
</svg>
